X: 21111
T: the BONNIEST LASS IN A' THE WARLD
Q: "Cheerful"
%R: reel, march
B: "Edinburgh Repository of Music" v.2 p.111 #1
F: http://digital.nls.uk/special-collections-of-printed-music/pageturner.cfm?id=87776133
Z: 2015 John Chambers <jc:trillian.mit.edu>
M: C|
L: 1/8
K: G
%%slurgraces 0
%%graceslurs 0
GA |\
B2D2 E2GB/d/ | cBAG E2DE |\
G2{f}g2 de/f/ gd | {f2}Te4 {de}d2ef |\
gfed ef gB/d/ |
{d}cBAG {F}E3DE |\
G2g2 decd | B2TA2 {GA}G2 :|\
|: ef |\
gfed efg>b | agfe f>gaf |
{a}gfga bgab | Te4 {de}d2ga |\
b>age de/f/ gB | {d}cBAG {F}E2DE |\
G2g2 dedc | B2TA2 {GA}G2 :|
